X:23
T:O'Carolan's Lament
R:carolan
C:Turlough O'Carolan (1670-1738) ?
Z:id:hn-carolan-23
M:3/4
L:1/8
K:Em
GA | B2 Bc BA | B2 e2 GA | B2 Bc BG | A4 GA |
B2 Bc BA | B2 e2 ef | g2 fe df | e4 ||
ef | g2 fe df | ed B2 ef | g2 fe df | e4 ef |
g2 fe df | ed B2 GA | B2 AG FG | E4 ||
<end>
<start>
